source/img/icon/icon-gift-tab.svg

<svg width="64" height="75" viewBox="0 0 64 75" fill="none" xmlns="http://www.w3.org/2000/svg">
<path d="M61.1556 22.1167H61.054H36.3683C50.1841 15.3189 51.3016 11.0202 50.7937 8.62098C49.6762 4.72221 45.1048 1.72316 40.8381 3.32266C35.2508 5.42199 33.727 13.6194 32.2032 19.5175C30.273 13.5194 28.4444 5.92183 24.0762 2.02307C22.8571 0.923414 21.0286 -0.176239 18.2857 0.0236982C14.2222 0.423572 8.43175 5.32202 10.8698 10.8203C13.1048 16.1186 20.5206 19.5175 25.4984 22.2167H2.84444C1.21905 22.2167 0 23.5163 0 25.0158V36.2123C0 37.8118 1.32063 39.0114 2.84444 39.0114H3.14921V75H61.054V39.0114H61.1556C62.781 39.0114 64 37.7118 64 36.2123V25.0158C64 23.4163 62.6794 22.1167 61.1556 22.1167ZM42.4635 5.82187C44.5968 5.52196 47.4413 7.12146 47.746 9.02085C48.1524 11.72 44.3937 14.2192 42.6667 15.3189C40.127 17.0183 37.6889 17.918 35.3524 19.3176C36.1651 15.6188 37.8921 6.42168 42.4635 5.82187ZM19.5048 15.6188C17.2698 14.1192 13.0032 11.2202 13.1048 7.9212C13.2063 4.32234 18.8952 1.42326 21.9429 4.1224C25.8032 7.42136 27.6317 15.1189 29.054 20.5172C25.8032 18.9177 22.7556 17.7181 19.5048 15.6188ZM25.4984 72.0009H6.09524V39.0114H25.4984V72.0009ZM25.4984 36.0123H3.04762V25.1158H25.4984V36.0123ZM35.6571 72.0009H28.4444V25.1158H35.6571V72.0009ZM58.0064 72.0009H38.7048V39.0114H58.1079V72.0009H58.0064ZM60.9524 36.0123H38.7048V25.1158H60.9524V36.0123Z" fill="#81B3D2"/>
</svg>

<svg width="64" height="75" fill="none" xmlns="http://www.w3.org/2000/svg"><path d="M61.156 22.117H36.368C50.184 15.319 51.302 11.02 50.794 8.62c-1.118-3.899-5.69-6.898-9.956-5.298-5.587 2.099-7.111 10.296-8.635 16.194-1.93-5.998-3.759-13.595-8.127-17.494-1.219-1.1-3.047-2.2-5.79-2-4.064.4-9.854 5.299-7.416 10.797 2.235 5.299 9.65 8.697 14.628 11.397H2.844A2.817 2.817 0 000 25.016v11.196c0 1.6 1.32 2.8 2.844 2.8h.305V75h57.905V39.011h.102c1.625 0 2.844-1.3 2.844-2.799V25.016c0-1.6-1.32-2.9-2.844-2.9zM42.464 5.822c2.133-.3 4.977 1.3 5.282 3.199.406 2.699-3.352 5.198-5.08 6.298-2.539 1.7-4.977 2.599-7.314 3.999.813-3.7 2.54-12.896 7.112-13.496zm-22.96 9.797c-2.234-1.5-6.5-4.399-6.4-7.698.102-3.599 5.791-6.498 8.839-3.799 3.86 3.3 5.689 10.997 7.111 16.395-3.25-1.6-6.298-2.799-9.55-4.898zM25.499 72H6.095V39.01h19.403v32.99zm0-35.989H3.048V25.116h22.45v10.896zm10.16 35.989h-7.214V25.116h7.213V72zm22.348 0H38.705V39.01h19.403v32.99h-.102zm2.946-35.989H38.705V25.116h22.247v10.896z" fill="#81B3D2"/></svg>
